public/assets/images/icons/editorial.svg

<svg width="120" height="120" viewBox="0 0 120 120" fill="none" xmlns="http://www.w3.org/2000/svg">
<path d="M14 37.0001C14 33.1893 17.0892 30.1001 20.9 30.1001H66.44C70.2508 30.1001 73.34 33.1893 73.34 37.0001V99.1001C73.34 102.911 70.2508 106 66.44 106H20.9C17.0892 106 14 102.911 14 99.1001V37.0001Z" fill="#E6C3E6"/>
<foreignObject x="11.1396" y="-16" width="124.86" height="124.86"><div xmlns="http://www.w3.org/1999/xhtml" style="backdrop-filter:blur(15px);clip-path:url(#bgblur_0_911_3228_clip_path);height:100%;width:100%"></div></foreignObject><path data-figma-bg-blur-radius="30" d="M102.846 17.154C107.051 21.3593 107.051 28.1774 102.846 32.3827L95.2607 39.9677L63.0756 72.1528C61.3505 73.8779 59.1891 75.1017 56.8223 75.6934L44.4871 78.7772C42.5155 79.2701 40.7296 77.4842 41.2225 75.5125L44.3063 63.1774C44.898 60.8106 46.1218 58.6491 47.8468 56.924L80.0319 24.739L87.6169 17.154C91.8222 12.9487 98.6403 12.9487 102.846 17.154Z" fill="url(#paint0_linear_911_3228)" fill-opacity="0.3"/>
<foreignObject x="11.1396" y="-16" width="124.86" height="124.86"><div xmlns="http://www.w3.org/1999/xhtml" style="backdrop-filter:blur(15px);clip-path:url(#bgblur_1_911_3228_clip_path);height:100%;width:100%"></div></foreignObject><g data-figma-bg-blur-radius="30">
<path fill-rule="evenodd" clip-rule="evenodd" d="M102.683 32.2201C106.799 28.1046 106.799 21.4321 102.683 17.3166C98.5675 13.2011 91.895 13.2011 87.7795 17.3166L48.0095 57.0867C46.3139 58.7823 45.111 60.9068 44.5294 63.2332L41.4456 75.5683C40.9948 77.3715 42.6281 79.0048 44.4313 78.554L56.7665 75.4702C59.0928 74.8887 61.2174 73.6858 62.913 71.9902L102.683 32.2201ZM102.846 32.3827C107.051 28.1774 107.051 21.3593 102.846 17.154C98.6403 12.9487 91.8222 12.9487 87.6169 17.154L47.8468 56.924C46.1218 58.6491 44.898 60.8106 44.3063 63.1774L41.2225 75.5125C40.7296 77.4842 42.5155 79.2701 44.4871 78.7772L56.8223 75.6934C59.1891 75.1017 61.3505 73.8779 63.0756 72.1528L102.846 32.3827Z" fill="url(#paint1_linear_911_3228)"/>
<path fill-rule="evenodd" clip-rule="evenodd" d="M102.683 32.2201C106.799 28.1046 106.799 21.4321 102.683 17.3166C98.5675 13.2011 91.895 13.2011 87.7795 17.3166L48.0095 57.0867C46.3139 58.7823 45.111 60.9068 44.5294 63.2332L41.4456 75.5683C40.9948 77.3715 42.6281 79.0048 44.4313 78.554L56.7665 75.4702C59.0928 74.8887 61.2174 73.6858 62.913 71.9902L102.683 32.2201ZM102.846 32.3827C107.051 28.1774 107.051 21.3593 102.846 17.154C98.6403 12.9487 91.8222 12.9487 87.6169 17.154L47.8468 56.924C46.1218 58.6491 44.898 60.8106 44.3063 63.1774L41.2225 75.5125C40.7296 77.4842 42.5155 79.2701 44.4871 78.7772L56.8223 75.6934C59.1891 75.1017 61.3505 73.8779 63.0756 72.1528L102.846 32.3827Z" fill="url(#paint2_radial_911_3228)"/>
</g>
<path d="M47.7765 75.5445C45.7479 76.07 43.901 74.2231 44.4265 72.1945C44.9597 70.1365 47.5274 69.437 49.0307 70.9403C50.534 72.4436 49.8346 75.0113 47.7765 75.5445Z" fill="white"/>
<defs>
<clipPath id="bgblur_0_911_3228_clip_path" transform="translate(-11.1396 16)"><path d="M102.846 17.154C107.051 21.3593 107.051 28.1774 102.846 32.3827L95.2607 39.9677L63.0756 72.1528C61.3505 73.8779 59.1891 75.1017 56.8223 75.6934L44.4871 78.7772C42.5155 79.2701 40.7296 77.4842 41.2225 75.5125L44.3063 63.1774C44.898 60.8106 46.1218 58.6491 47.8468 56.924L80.0319 24.739L87.6169 17.154C91.8222 12.9487 98.6403 12.9487 102.846 17.154Z"/>
</clipPath><clipPath id="bgblur_1_911_3228_clip_path" transform="translate(-11.1396 16)"><path fill-rule="evenodd" clip-rule="evenodd" d="M102.683 32.2201C106.799 28.1046 106.799 21.4321 102.683 17.3166C98.5675 13.2011 91.895 13.2011 87.7795 17.3166L48.0095 57.0867C46.3139 58.7823 45.111 60.9068 44.5294 63.2332L41.4456 75.5683C40.9948 77.3715 42.6281 79.0048 44.4313 78.554L56.7665 75.4702C59.0928 74.8887 61.2174 73.6858 62.913 71.9902L102.683 32.2201ZM102.846 32.3827C107.051 28.1774 107.051 21.3593 102.846 17.154C98.6403 12.9487 91.8222 12.9487 87.6169 17.154L47.8468 56.924C46.1218 58.6491 44.898 60.8106 44.3063 63.1774L41.2225 75.5125C40.7296 77.4842 42.5155 79.2701 44.4871 78.7772L56.8223 75.6934C59.1891 75.1017 61.3505 73.8779 63.0756 72.1528L102.846 32.3827Z"/>
</clipPath><linearGradient id="paint0_linear_911_3228" x1="48.0804" y1="19.9841" x2="118.088" y2="56.2333" gradientUnits="userSpaceOnUse">
<stop stop-color="#DE5AFF" stop-opacity="0.9"/>
<stop offset="0.447036" stop-color="#FF56FC" stop-opacity="0.955296"/>
<stop offset="1" stop-color="#E44EFF" stop-opacity="0.9"/>
</linearGradient>
<linearGradient id="paint1_linear_911_3228" x1="50.4737" y1="11.6836" x2="111.269" y2="47.1798" gradientUnits="userSpaceOnUse">
<stop offset="0.188941" stop-color="#FAE7FF" stop-opacity="0.523483"/>
<stop offset="0.526042" stop-color="#E788FF"/>
<stop offset="1" stop-color="#F6B4FF" stop-opacity="0.1"/>
</linearGradient>
<radialGradient id="paint2_radial_911_3228" cx="0" cy="0" r="1" gradientUnits="userSpaceOnUse" gradientTransform="translate(50.8327 76.7366) rotate(-50.9773) scale(50.9364 83.2868)">
<stop stop-color="white"/>
<stop offset="1" stop-color="white" stop-opacity="0"/>
</radialGradient>
</defs>
</svg>

<svg xmlns="http://www.w3.org/2000/svg" width="120" height="120" fill="none"><path fill="#E6C3E6" d="M14 37a6.9 6.9 0 0 1 6.9-6.9h45.54a6.9 6.9 0 0 1 6.9 6.9v62.1a6.9 6.9 0 0 1-6.9 6.9H20.9a6.9 6.9 0 0 1-6.9-6.9z"/><foreignObject width="124.86" height="124.86" x="11.14" y="-16"><div xmlns="http://www.w3.org/1999/xhtml" style="backdrop-filter:blur(15px);clip-path:url(#a);height:100%;width:100%"/></foreignObject><path fill="url(#b)" fill-opacity=".3" d="M102.846 17.154c4.205 4.205 4.205 11.023 0 15.229l-7.585 7.585-32.185 32.185a13.46 13.46 0 0 1-6.254 3.54l-12.335 3.084c-1.971.493-3.757-1.293-3.265-3.264l3.084-12.336a13.46 13.46 0 0 1 3.54-6.253l32.186-32.185 7.585-7.585c4.205-4.205 11.023-4.205 15.229 0" data-figma-bg-blur-radius="30"/><foreignObject width="124.86" height="124.86" x="11.14" y="-16"><div xmlns="http://www.w3.org/1999/xhtml" style="backdrop-filter:blur(15px);clip-path:url(#c);height:100%;width:100%"/></foreignObject><g fill-rule="evenodd" clip-rule="evenodd" data-figma-bg-blur-radius="30"><path fill="url(#d)" d="M102.683 32.22c4.116-4.115 4.116-10.788 0-14.903s-10.788-4.116-14.904 0l-39.77 39.77a13.23 13.23 0 0 0-3.48 6.146l-3.083 12.335c-.451 1.803 1.182 3.437 2.985 2.986l12.336-3.084a13.23 13.23 0 0 0 6.146-3.48zm.163.163c4.205-4.206 4.205-11.024 0-15.229-4.206-4.205-11.024-4.205-15.23 0l-39.77 39.77a13.46 13.46 0 0 0-3.54 6.253l-3.084 12.336c-.492 1.971 1.294 3.757 3.265 3.264l12.335-3.084a13.46 13.46 0 0 0 6.254-3.54z"/><path fill="url(#e)" d="M102.683 32.22c4.116-4.115 4.116-10.788 0-14.903s-10.788-4.116-14.904 0l-39.77 39.77a13.23 13.23 0 0 0-3.48 6.146l-3.083 12.335c-.451 1.803 1.182 3.437 2.985 2.986l12.336-3.084a13.23 13.23 0 0 0 6.146-3.48zm.163.163c4.205-4.206 4.205-11.024 0-15.229-4.206-4.205-11.024-4.205-15.23 0l-39.77 39.77a13.46 13.46 0 0 0-3.54 6.253l-3.084 12.336c-.492 1.971 1.294 3.757 3.265 3.264l12.335-3.084a13.46 13.46 0 0 0 6.254-3.54z"/></g><path fill="#fff" d="M47.777 75.545c-2.03.525-3.876-1.322-3.35-3.35.533-2.058 3.1-2.758 4.604-1.255 1.503 1.504.804 4.071-1.255 4.605"/><defs><linearGradient id="b" x1="48.08" x2="118.088" y1="19.984" y2="56.233" gradientUnits="userSpaceOnUse"><stop stop-color="#DE5AFF" stop-opacity=".9"/><stop offset=".447" stop-color="#FF56FC" stop-opacity=".955"/><stop offset="1" stop-color="#E44EFF" stop-opacity=".9"/></linearGradient><linearGradient id="d" x1="50.474" x2="111.269" y1="11.684" y2="47.18" gradientUnits="userSpaceOnUse"><stop offset=".189" stop-color="#FAE7FF" stop-opacity=".523"/><stop offset=".526" stop-color="#E788FF"/><stop offset="1" stop-color="#F6B4FF" stop-opacity=".1"/></linearGradient><clipPath id="a" transform="translate(-11.14 16)"><path d="M102.846 17.154c4.205 4.205 4.205 11.023 0 15.229l-7.585 7.585-32.185 32.185a13.46 13.46 0 0 1-6.254 3.54l-12.335 3.084c-1.971.493-3.757-1.293-3.265-3.264l3.084-12.336a13.46 13.46 0 0 1 3.54-6.253l32.186-32.185 7.585-7.585c4.205-4.205 11.023-4.205 15.229 0"/></clipPath><clipPath id="c" transform="translate(-11.14 16)"><path fill-rule="evenodd" d="M102.683 32.22c4.116-4.115 4.116-10.788 0-14.903s-10.788-4.116-14.904 0l-39.77 39.77a13.23 13.23 0 0 0-3.48 6.146l-3.083 12.335c-.451 1.803 1.182 3.437 2.985 2.986l12.336-3.084a13.23 13.23 0 0 0 6.146-3.48zm.163.163c4.205-4.206 4.205-11.024 0-15.229-4.206-4.205-11.024-4.205-15.23 0l-39.77 39.77a13.46 13.46 0 0 0-3.54 6.253l-3.084 12.336c-.492 1.971 1.294 3.757 3.265 3.264l12.335-3.084a13.46 13.46 0 0 0 6.254-3.54z" clip-rule="evenodd"/></clipPath><radialGradient id="e" cx="0" cy="0" r="1" gradientTransform="rotate(-50.977 105.898 -14.945)scale(50.9364 83.2868)" gradientUnits="userSpaceOnUse"><stop stop-color="#fff"/><stop offset="1" stop-color="#fff" stop-opacity="0"/></radialGradient></defs></svg>
